X: 21398
T: Kerryman's Fling
R: strathspey
M: 4/4
K: Dmajor
|:A2A/A/Adf|edef edB2|A2A/A/Adf|1 edef d2dB:|2 edef defg||
|:a4 b3f|afef edBA|1 a4 b3f|afef d2fg:|2 a4 b3f|afef d2dB||

